public/img/clients/nordicity.svg

<svg xmlns="http://www.w3.org/2000/svg" focusable="false" role="img" viewBox="0 0 200 100" fill="currentColor">
  <path fill-rule="evenodd" d="M59.464 44.827v-.006c-.01 0-.022 0-.033-.002.01.004.025.01.034.012 0 0-.002-.002 0-.003l-.001-.001zM42.883 21.96c.038.35.082.723.13 1.117.346 2.8.954 7.83 2 12.197-3.893-2.62-8.14-5.65-12.17-8.876.068.348.142.72.226 1.115a60.01 60.01 0 003.725 11.48 58.625 58.625 0 002.574 5.146c-4.303.17-14.683.212-22.354-1.044.274.22.57.452.88.696 2.226 1.737 6.21 4.863 10.04 7.212-4.607.9-9.75 1.76-14.88 2.328.292.2.61.41.947.628a60.06 60.06 0 0010.752 5.484c7.376 2.87 17.053 4.96 28.138 3.243-3.59-.38-14.608-2-24.722-8.183 0 0 1.615-.392 3.93-1.157 6.486 3.392 15.35 7.002 22.297 7.836-2.268-2.807-8.914-11.745-11.693-23.268 0 0 1.418.864 3.595 1.96 2.187 6.986 5.903 15.806 10.226 21.308-1.036-2.228-2.87-9.9-4.38-18.735 2.306 1.27 4.89 2.296 7.285 2.37-.74-.254-3.653-1.863-7.752-5.214-.218-1.386-.43-2.788-.624-4.19 0 0 4.043 3.59 8.41 4.392-.31-.033-10.772-9.76-16.58-17.846v.001zM32.307 46.83s4.035-.243 7.492-1.938a55.184 55.184 0 002.212 3.492c-1.548.34-3.664.704-6.3.97a257.347 257.347 0 01-3.405-2.524h.001zm22.09 14.353c-2.308-.844-9.028-4.972-16.343-10.15 1.566-.456 3.142-1.052 4.53-1.83a52.633 52.633 0 0011.813 11.98zM80.94 48.872c0 3.373.067 6.223.36 9.138l-.064.033c-1.016-2.39-2.326-4.946-3.767-7.403l-5.7-9.466h-4.62V63.25h3.735v-7.893c0-3.636-.065-6.55-.23-9.4l.132-.033c1.08 2.49 2.522 5.175 3.93 7.6l5.765 9.727h4.193V41.175H80.94v7.698-.001zm14.15-1.932c-4.816 0-8.255 3.21-8.255 8.45 0 5.143 3.505 8.222 7.992 8.222h.033c4.028 0 8.156-2.62 8.156-8.484 0-4.848-3.177-8.19-7.927-8.19l.001.002zm-.132 13.756h-.033c-2.39 0-3.93-2.325-3.93-5.404 0-2.654 1.146-5.438 3.996-5.438 2.752 0 3.866 2.883 3.866 5.372 0 3.243-1.605 5.47-3.898 5.47h-.001zm13.822-10.383h-.1l-.163-3.014h-3.472c.098 1.408.13 2.98.13 5.142v10.81h4.03v-8.288c0-.426.032-.85.098-1.212.36-1.834 1.703-3.046 3.603-3.046.49 0 .852.033 1.212.098v-3.767a4.267 4.267 0 00-.95-.098c-1.736 0-3.603 1.145-4.39 3.373l.002.002zm21.616-10.351h-4.03v9.04h-.064c-.72-1.178-2.293-2.063-4.488-2.063-3.832 0-7.173 3.177-7.14 8.515 0 4.914 3.013 8.157 6.845 8.157 2.292 0 4.225-1.114 5.175-2.883h.065l.197 2.52h3.57a82.047 82.047 0 01-.13-4.486v-18.8zm-4.03 16.378c0 .426-.03.82-.13 1.18-.393 1.735-1.834 2.85-3.472 2.85-2.555 0-3.996-2.13-3.996-5.078 0-2.948 1.44-5.24 4.03-5.24 1.833 0 3.11 1.276 3.47 2.816.067.327.1.753.1 1.08v2.392h-.002zm8.909-15.69c-1.343 0-2.26.95-2.26 2.195 0 1.18.884 2.16 2.227 2.16h.033c1.376 0 2.26-.98 2.26-2.16-.032-1.245-.884-2.195-2.26-2.195zM133.5 47.5h4.03v15.952h-4.03V47.5zm14.975 2.584c1.44 0 2.39.294 3.046.622l.722-3.046c-.917-.393-2.424-.72-3.898-.72-5.6 0-8.877 3.7-8.877 8.483 0 4.946 3.243 8.156 8.222 8.156 1.997 0 3.667-.427 4.52-.82l-.558-2.98a8.017 8.017 0 01-3.177.622c-2.752 0-4.88-1.868-4.88-5.143-.033-2.916 1.8-5.176 4.88-5.176v.002zm7.761-9.434c-1.343 0-2.26.95-2.26 2.195 0 1.18.885 2.16 2.228 2.16h.032c1.376 0 2.26-.98 2.26-2.16-.032-1.245-.884-2.195-2.26-2.195zM154.5 47.5h4.03v15.952h-4.03V47.5zm11.562-4.295L162.1 44.32v2.98h-2.26v3.013h2.26v7.468c0 2.097.392 3.57 1.276 4.488.754.82 1.966 1.31 3.472 1.31 1.245 0 2.326-.196 2.916-.425l-.066-3.046c-.458.13-.852.163-1.572.163-1.54 0-2.064-.982-2.064-2.947v-7.01h3.833V47.3h-3.833v-4.095zM182.21 47.3l-2.49 8.516c-.328 1.015-.622 2.227-.852 3.11h-.098a53.35 53.35 0 00-.917-3.078l-2.85-8.55h-4.454l5.862 14.643c.163.394.196.623.196.787 0 .196-.098.426-.23.72-.556 1.082-1.473 2.032-2.227 2.523-.817.59-1.636.95-2.324 1.113l.917 3.374c.983-.13 2.62-.655 4.226-2.03 1.866-1.638 3.34-4.292 5.534-10.253L186.5 47.3h-4.29z" clip-rule="evenodd"/>
</svg>

<svg width="200" height="100" viewBox="0 0 200 100" fill="none" xmlns="http://www.w3.org/2000/svg">
<path fill-rule="evenodd" clip-rule="evenodd" d="M59.464 44.827V44.821C59.454 44.821 59.442 44.821 59.431 44.819C59.441 44.823 59.456 44.829 59.465 44.831C59.465 44.831 59.463 44.829 59.465 44.828L59.464 44.827ZM42.883 21.96C42.921 22.31 42.965 22.683 43.013 23.077C43.359 25.877 43.967 30.907 45.013 35.274C41.12 32.654 36.873 29.624 32.843 26.398C32.911 26.746 32.985 27.118 33.069 27.513C33.695 30.443 34.819 34.497 36.794 38.993C37.528 40.663 38.384 42.39 39.368 44.139C35.065 44.309 24.685 44.351 17.014 43.095C17.288 43.315 17.584 43.547 17.894 43.791C20.12 45.528 24.104 48.654 27.934 51.003C23.327 51.903 18.184 52.763 13.054 53.331C13.346 53.531 13.664 53.741 14.001 53.959C16.516 55.589 20.177 57.659 24.753 59.443C32.129 62.313 41.806 64.403 52.891 62.686C49.301 62.306 38.283 60.686 28.169 54.503C28.169 54.503 29.784 54.111 32.099 53.346C38.585 56.738 47.449 60.348 54.396 61.182C52.128 58.375 45.482 49.437 42.703 37.914C42.703 37.914 44.121 38.778 46.298 39.874C48.485 46.86 52.201 55.68 56.524 61.182C55.488 58.954 53.654 51.282 52.144 42.447C54.45 43.717 57.034 44.743 59.429 44.817C58.689 44.563 55.776 42.954 51.677 39.603C51.459 38.217 51.247 36.815 51.053 35.413C51.053 35.413 55.096 39.003 59.463 39.805C59.153 39.772 48.691 30.045 42.883 21.959V21.96ZM32.307 46.83C32.307 46.83 36.342 46.587 39.799 44.892C40.473 46.052 41.211 47.218 42.011 48.384C40.463 48.724 38.347 49.088 35.711 49.354C34.576 48.526 33.437 47.684 32.306 46.83H32.307ZM54.397 61.183C52.089 60.339 45.369 56.211 38.054 51.033C39.62 50.577 41.196 49.981 42.584 49.203C45.579 53.403 49.43 57.548 54.397 61.183ZM80.94 48.872C80.94 52.245 81.007 55.095 81.3 58.01L81.236 58.043C80.22 55.653 78.91 53.097 77.469 50.64L71.769 41.174H67.149V63.25H70.884V55.357C70.884 51.721 70.819 48.807 70.654 45.957L70.786 45.924C71.866 48.414 73.308 51.099 74.716 53.524L80.481 63.251H84.674V41.175H80.94V48.873V48.872ZM95.09 46.94C90.274 46.94 86.835 50.15 86.835 55.39C86.835 60.533 90.34 63.612 94.827 63.612H94.86C98.888 63.612 103.016 60.992 103.016 55.128C103.016 50.28 99.839 46.938 95.089 46.938L95.09 46.94ZM94.958 60.696H94.925C92.535 60.696 90.995 58.371 90.995 55.292C90.995 52.638 92.141 49.854 94.991 49.854C97.743 49.854 98.857 52.737 98.857 55.226C98.857 58.469 97.252 60.696 94.959 60.696H94.958ZM108.78 50.313H108.68L108.517 47.299H105.045C105.143 48.707 105.175 50.279 105.175 52.441V63.251H109.205V54.963C109.205 54.537 109.237 54.113 109.303 53.751C109.663 51.917 111.006 50.705 112.906 50.705C113.396 50.705 113.758 50.738 114.118 50.803V47.036C113.79 46.971 113.561 46.938 113.168 46.938C111.432 46.938 109.565 48.083 108.778 50.311L108.78 50.313ZM130.396 39.962H126.366V49.002H126.302C125.582 47.824 124.009 46.939 121.814 46.939C117.982 46.939 114.641 50.116 114.674 55.454C114.674 60.368 117.687 63.611 121.519 63.611C123.811 63.611 125.744 62.497 126.694 60.728H126.759L126.956 63.248H130.526C130.461 62.168 130.396 60.4 130.396 58.762V39.962ZM126.366 56.34C126.366 56.766 126.336 57.16 126.236 57.52C125.843 59.255 124.402 60.37 122.764 60.37C120.209 60.37 118.768 58.24 118.768 55.292C118.768 52.344 120.208 50.052 122.798 50.052C124.631 50.052 125.908 51.328 126.268 52.868C126.335 53.195 126.368 53.621 126.368 53.948V56.34H126.366ZM135.275 40.65C133.932 40.65 133.015 41.6 133.015 42.845C133.015 44.025 133.899 45.005 135.242 45.005H135.275C136.651 45.005 137.535 44.025 137.535 42.845C137.503 41.6 136.651 40.65 135.275 40.65ZM133.5 47.5H137.53V63.452H133.5V47.5ZM148.475 50.084C149.915 50.084 150.865 50.378 151.521 50.706L152.243 47.66C151.326 47.267 149.819 46.94 148.345 46.94C142.745 46.94 139.468 50.64 139.468 55.423C139.468 60.369 142.711 63.579 147.69 63.579C149.687 63.579 151.357 63.152 152.21 62.759L151.652 59.779C150.866 60.106 149.85 60.401 148.475 60.401C145.723 60.401 143.595 58.533 143.595 55.258C143.562 52.342 145.395 50.082 148.475 50.082V50.084ZM156.236 40.65C154.893 40.65 153.976 41.6 153.976 42.845C153.976 44.025 154.861 45.005 156.204 45.005H156.236C157.612 45.005 158.496 44.025 158.496 42.845C158.464 41.6 157.612 40.65 156.236 40.65ZM154.5 47.5H158.53V63.452H154.5V47.5ZM166.062 43.205L162.1 44.32V47.3H159.84V50.313H162.1V57.781C162.1 59.878 162.492 61.351 163.376 62.269C164.13 63.089 165.342 63.579 166.848 63.579C168.093 63.579 169.174 63.383 169.764 63.154L169.698 60.108C169.24 60.238 168.846 60.271 168.126 60.271C166.586 60.271 166.062 59.289 166.062 57.324V50.314H169.895V47.3H166.062V43.205ZM182.21 47.3L179.72 55.816C179.392 56.831 179.098 58.043 178.868 58.926H178.77C178.54 58.043 178.18 56.831 177.853 55.848L175.003 47.298H170.549L176.411 61.941C176.574 62.335 176.607 62.564 176.607 62.728C176.607 62.924 176.509 63.154 176.377 63.448C175.821 64.53 174.904 65.48 174.15 65.971C173.333 66.561 172.514 66.921 171.826 67.084L172.743 70.458C173.726 70.328 175.363 69.803 176.969 68.428C178.835 66.79 180.309 64.136 182.503 58.175L186.5 47.3H182.21Z" fill="black"/>
</svg>
